!!!!SEGMENT: pl-kozmzk--mzk-m-241_chodkiewicz-zofia--o-dieu-charmant-des-l-harmonie.krn
!!!cenid: 18xx:3055
!!!COM: Chodkiewicz, Zofia
!!!COM-rismid: pe30113022
!!!CDT: 1803-1871
!!!CNT:
!!!OTL: O dieu charmant des l'harmonie
!!!PDT:
!!!AGN: Secular
!!!SMS-siglum: PL-KOZmzk
!!!SMS-shelfmark: mzk/m/241
!!!SMS-shelfwork: W
!!!SMS-variant:
!!!SMS-altvar:
!!!NIFC-rismid: 1001025346
!!!URL-scan: https://repozytorium.nifc.pl/islandora/object/pl-kozmzk%3A4791/datastream/PDF/view
!!!ONB-nifc:
!!!OMD: Agitato
!!!key:
**kern	**kern	**dynam	**kern	**text	**dynam
*part3	*part2	*part2	*part1	*part1	*part1
*staff3	*staff2	*	*staff1	*staff1	*
*Iforte	*Iforte	*	*Ivox	*	*
*I"Forte. Piano.	*I"Forte. Piano.	*	*I"Chant	*	*
*I'pf	*I'pf	*	*I'V	*	*
*clefF4	*clefG2	*	*clefG2	*	*
*k[]	*k[]	*	*k[]	*	*
*a:	*a:	*	*a:	*	*
*M3/8	*M3/8	*	*M3/8	*	*
=1	=1	=1	=1	=1	=1
*	*Xtuplet	*	*	*	*
!LO:N:vis=2	!	!	!	!	!
4.A 4.BB\	24r	.	4.r	.	.
.	(24c/LL	<	.	.	.
.	24e/JJ)	.	.	.	.
.	(24a/LL	.	.	.	.
.	24e/	.	.	.	.
.	24a/JJ)	.	.	.	.
.	(24cc/LL	.	.	.	.
.	24a/	.	.	.	.
.	24cc/JJ)	[[	.	.	.
=2	=2	=2	=2	=2	=2
8A 8AA\	8ee\	ff	4.r	.	.
8E 8EE\	8aa: 8ee: 8cc: 8a:\	.	.	.	.
8E 8EE\	8bb: 8gg#X: 8ee: 8b:\	.	.	.	.
=3	=3	=3	=3	=3	=3
!LO:N:vis=2	!	!	!	!	!
[4.A [>4.AA\	24ccc: 24aa: 24ee: 24cc:\	.	4.r	.	.
.	(24c/LL	<	.	.	.
.	24e/JJ)	.	.	.	.
.	(24a/LL	.	.	.	.
.	24e/	.	.	.	.
.	24a/JJ)	.	.	.	.
.	(24cc/LL	.	.	.	.
.	24a/	.	.	.	.
.	24cc/JJ)	[	.	.	.
=4	=4	=4	=4	=4	=4
8A] 8AA\]	8ee\	ff	4.r	.	.
8F 8FF\	8aa: 8dd: 8a:\	.	.	.	.
8F 8FF\	8bb 8aa 8dd#X 8b\	.	.	.	.
=5	=5	=5	=5	=5	=5
!LO:N:vis=2	!	!	!	!	!
[4.E [>4.EE\	4.ccc 4.aa 4.ee 4.cc\	.	4.r	.	.
=6	=6	=6	=6	=6	=6
!LO:N:vis=2	!	!	!	!	!
4.E] 4.EE\]	4.eee 4.bb 4.gg#X 4.dd\	ff	4.r	.	.
==7;	==7;	==7	==7;	==7	==7
*^	*	*	*	*	*
!LO:N:vis=2	!LO:N:vis=2.	!	!	!	!	!
8AA/L	4.AA\	(24e/LL	.	8ee\	O	.
.	.	24c/	.	.	.	.
.	.	24e/JJ	.	.	.	.
8E/	.	24a/LL	.	8dd\	Dieu	.
.	.	24e/	.	.	.	.
.	.	24a/JJ	.	.	.	.
8A/J	.	24cc/LL	.	8cc\	char-	.
!	!	!LO:TX:b:i:t=legato.	!	!	!	!
.	.	24a/	.	.	.	.
.	.	24cc/JJ)	.	.	.	.
=8	=8	=8	=8	=8	=8	=8
!LO:N:vis=2	!LO:N:vis=2.	!	!	!	!	!
8AA/L	4.AA\	(24e/LL	.	4b\	-mant	.
.	.	24c/	.	.	.	.
.	.	24e/JJ	.	.	.	.
8E/	.	24a/LL	.	.	.	.
.	.	24e/	.	.	.	.
.	.	24a/JJ	.	.	.	.
8A/J	.	24cc/LL	.	8a\	des	.
.	.	24a/	.	.	.	.
.	.	24cc/JJ)	.	.	.	.
=9	=9	=9	=9	=9	=9	=9
*rep	*rep	*rep	*	*	*	*
!LO:N:vis=2	!LO:N:vis=2.	!	!	!	!	!
8AA/L	4.AA\	(24e/LL	.	4ee\	l'har-	.
.	.	24c/	.	.	.	.
.	.	24e/JJ	.	.	.	.
8E/	.	24a/LL	.	.	.	.
.	.	24e/	.	.	.	.
.	.	24a/JJ	.	.	.	.
8A/J	.	24cc/LL	.	8ee\	-mo-	.
.	.	24a/	.	.	.	.
.	.	24cc/JJ)	.	.	.	.
*Xrep	*Xrep	*Xrep	*	*	*	*
!!LO:LB:g=original
=10	=10	=10	=10	=10	=10	=10
!LO:N:vis=2	!LO:N:vis=2.	!	!	!	!	!
8AA/L	4.AA\	(>24e/LL	.	4ff^\	-ni-	.
.	.	24d/	.	.	.	.
.	.	24e/JJ	.	.	.	.
8E/	.	24g#X/LL	.	.	.	.
.	.	24e/	.	.	.	.
.	.	24g#/JJ	.	.	.	.
8B/J	.	24b/LL	.	8ee\	-e	.
.	.	24g#/	.	.	.	.
.	.	24b/JJ)	.	.	.	.
=11	=11	=11	=11	=11	=11	=11
!LO:N:vis=2	!LO:N:vis=2.	!	!	!	!	!
8AA/L	4.AA\	(24e/LL	.	8b\	ac-	.
.	.	24d/	.	.	.	.
.	.	24e/JJ	.	.	.	.
8E/	.	24g#X/LL	.	4ee\	-cours	.
.	.	24e/	.	.	.	.
.	.	24g#/JJ	.	.	.	.
8B/J	.	24b/LL	.	.	.	.
.	.	24g#/	.	.	.	.
.	.	24b/JJ)	.	.	.	.
=12	=12	=12	=12	=12	=12	=12
!LO:N:vis=2	!LO:N:vis=2.	!	!	!	!	!
8AA/L	4.AA\	(24e/LL	.	8.dd\	a-	.
.	.	24c/	.	.	.	.
.	.	24e/JJ	.	.	.	.
8E/	.	24a/LL	.	.	.	.
.	.	24e/	.	.	.	.
.	.	.	.	16cc\	-ni	.
.	.	24a/JJ	.	.	.	.
8A/J	.	24cc/LL	.	8b\	mer	.
.	.	24a/	.	.	.	.
.	.	24cc/JJ)	.	.	.	.
=13	=13	=13	=13	=13	=13	=13
!LO:N:vis=2	!LO:N:vis=2.	!	!	!	!	!
8FF/L	4.FF\	(24a\LL	.	8as$SS</L	mes	.
.	.	24d#X\	.	.	.	.
.	.	24a\JJ	.	.	.	.
8C/	.	24cc\LL	.	8g#X/J	.	.
.	.	24a\	.	.	.	.
.	.	24cc\JJ	.	.	.	.
8F/J	.	24dd#X\LL	.	8a/	ac-	.
.	.	24cc\	.	.	.	.
.	.	24dd#\JJ)	.	.	.	.
=14	=14	=14	=14	=14	=14	=14
!LO:N:vis=2	!LO:N:vis=2.	!	!	!	!	!
8EE/L	4.EE\	(<24g#X/LL	.	4b/	-cens,	.
.	.	24e/	.	.	.	.
.	.	24g#/JJ	.	.	.	.
8BB/	.	24b/LL	.	.	.	.
.	.	24g#/	.	.	.	.
.	.	24b/JJ	.	.	.	.
8E/J	.	(<24ee\)	.	8ee\	fais	.
.	.	8qg#/	.	.	.	.
.	.	24f^/LL	.	.	.	.
.	.	24e/JJ)	.	.	.	.
=15	=15	=15	=15	=15	=15	=15
!LO:N:vis=2	!LO:N:vis=2.	!	!	!	!	!
8AA/L	4.AA\	(24e/LL	.	8ee\	bril-	.
.	.	24c/	.	.	.	.
.	.	24e/JJ	.	.	.	.
8E/	.	24a/LL	.	8dd\	-ler	.
.	.	24e/	.	.	.	.
.	.	24a/JJ	.	.	.	.
8A/J	.	24cc/LL	.	8cc\	le	.
.	.	24a/	.	.	.	.
.	.	24cc/JJ)	.	.	.	.
=16	=16	=16	=16	=16	=16	=16
*rep	*rep	*rep	*	*	*	*
!LO:N:vis=2	!LO:N:vis=2.	!	!	!	!	!
8AA/L	4.AA\	(24e/LL	.	(4b\	feu	.
.	.	24c/	.	.	.	.
.	.	24e/JJ	.	.	.	.
8E/	.	24a/LL	.	.	.	.
.	.	24e/	.	.	.	.
.	.	24a/JJ	.	.	.	.
8A/J	.	24cc/LL	.	8a\)	.	.
.	.	24a/	.	.	.	.
.	.	24cc/JJ)	.	.	.	.
*Xrep	*Xrep	*Xrep	*	*	*	*
=17	=17	=17	=17	=17	=17	=17
!LO:N:vis=2	!LO:N:vis=2.	!	!	!	!	!
8GG/L	4.GG\	(24f/LL	.	4g/	du	.
.	.	24d/	.	.	.	.
.	.	24f/JJ	.	.	.	.
8D/	.	24b/LL	.	.	.	.
.	.	24f/	.	.	.	.
.	.	24b/JJ	.	.	.	.
8G/J	.	24dd/LL	.	8g/	ge-	.
.	.	24b/	.	.	.	.
.	.	24dd/JJ)	.	.	.	.
!!LO:LB:g=original
=18	=18	=18	=18	=18	=18	=18
!LO:N:vis=2	!LO:N:vis=2.	!	!	!	!	!
8C/L	4.C\	(24g/LL	.	4a^>/	-ni-	.
.	.	24e/	.	.	.	.
.	.	24g/JJ	.	.	.	.
8G/	.	24cc/LL	.	.	.	.
.	.	24g/	.	.	.	.
.	.	24cc/JJ	.	.	.	.
8c/J	.	24ee/LL	.	8g/	-e	.
.	.	24cc/	.	.	.	.
.	.	24ee/JJ)	.	.	.	.
=19	=19	=19	=19	=19	=19	=19
!LO:N:vis=2	!LO:N:vis=2.	!	!	!	!	!
8AA/L	4.AA\	(24g/LL	.	8cc\	et	.
.	.	24e/	.	.	.	.
.	.	24g/JJ	.	.	.	.
8E/	.	24cc/LL	.	8cc\	dans	.
.	.	24g/	.	.	.	.
.	.	24cc/JJ	.	.	.	.
8A/J	.	24ee/LL	.	8cc\	mes	.
.	.	24cc/	.	.	.	.
.	.	24ee/JJ)	.	.	.	.
=20	=20	=20	=20	=20	=20	=20
!LO:N:vis=2	!LO:N:vis=2.	!	!	!	!	!
8FF/L	4.FF\	(24a/LL	.	(4.ff\	vers	.
.	.	24d/	.	.	.	.
.	.	24a/JJ	.	.	.	.
8C/	.	24cc/LL	.	.	.	.
.	.	24a/	.	.	.	.
.	.	24cc/JJ	.	.	.	.
8F/J	.	24dd/LL	.	.	.	.
.	.	24cc/	.	.	.	.
.	.	24dd/JJ)	.	.	.	.
=21	=21	=21	=21	=21	=21	=21
!LO:N:vis=2	!LO:N:vis=2.	!	!	!	!	!
8GG/L	4.GG\	(24f/LL	.	8b\)	et	.
.	.	24d/	.	.	.	.
.	.	24f/JJ	.	.	.	.
8D/	.	24b/LL	.	8a\	dans	.
.	.	24f/	.	.	.	.
.	.	24b/JJ	.	.	.	.
8G/J	.	24dd/LL	.	8g/	mes	.
.	.	24b/	.	.	.	.
.	.	24dd/JJ)	.	.	.	.
=22	=22	=22	=22	=22	=22	=22
!LO:N:vis=2	!LO:N:vis=2.	!	!	!	!	!
8E/L	4.E\	(24cc#X\LL	.	4.gg\	chants,	.
.	.	24g\	.	.	.	.
.	.	24cc#\JJ	.	.	.	.
8G/	.	24gg\LL	.	.	.	.
.	.	24cc#\	.	.	.	.
.	.	24gg\JJ	.	.	.	.
8A/J	.	24cc#\LL	.	.	.	.
.	.	24g\	.	.	.	.
.	.	24cc#\JJ)	.	.	.	.
*v	*v	*	*	*	*	*
=23	=23	=23	=23	=23	=23
8D\L	(24ccn\LL	.	8ff#X\	et	.
.	24f#X\	.	.	.	.
.	24cc\JJ	.	.	.	.
8d\	24ff#X\LL	.	8ff#\	dans	.
.	24cc\	.	.	.	.
.	24ff#\JJ	.	.	.	.
8G#X\J	24ffn\LL	.	8ffn\	mes	.
.	24b\	.	.	.	.
.	24ff\JJ)	.	.	.	.
=24	=24	=24	=24	=24	=24
8c#XL 8Gn\	(24ee\LL	.	(8ee\	vers	.
.	24b-X\	.	.	.	.
.	24ee\JJ	.	.	.	.
8d 8F#X\	24dd\LL	.	8dd\)	.	.
.	24a\	.	.	.	.
.	24dd\JJ	.	.	.	.
8D\J	24cc\LL	.	8a/	et	.
.	24f#X\	.	.	.	.
.	24cc\JJ)	.	.	.	.
!!LO:LB:g=original
=25	=25	=25	=25	=25	=25
!LO:TX:t=P:mixedbeam:problem	!	!	!	!	!
8G\L	(24fn\LL	.	4bt\	dans	.
.	24d\	.	.	.	.
.	24f\JJ	.	.	.	.
8GG/	24g\LL	.	.	.	.
.	24f\	.	.	.	.
.	24g\JJ	.	.	.	.
8G\J	24b\LL	.	8b\	mes	.
.	24g\	.	.	.	.
.	24b\JJ)	.	.	.	.
=26	=26	=26	=26	=26	=26
*^	*	*	*	*	*
!LO:N:vis=2	!LO:N:vis=2.	!	!	!	!	!
8C/L	4.C\	(24g\LL	.	4.cc\	chants.	.
.	.	24e\	.	.	.	.
.	.	24g\JJ	.	.	.	.
8G/	.	24cc\LL	.	.	.	.
.	.	24g\	.	.	.	.
.	.	24cc\JJ	.	.	.	.
8c/J	.	24ee\LL	.	.	.	.
.	.	24cc\	.	.	.	.
.	.	24ee\JJ)	.	.	.	.
*v	*v	*	*	*	*	*
=27	=27	=27	=27	=27	=27
4.E 4.EE\	(24g#X/LL	.	4ff^\	cet	.
.	24d/	.	.	.	.
.	24g#/JJ	.	.	.	.
.	24b/LL	.	.	.	.
.	24g#/	.	.	.	.
.	24b/JJ	.	.	.	.
.	24dd/LL	.	8g#X/	ins-	.
.	24b/	.	.	.	.
.	24dd/JJ)	.	.	.	.
=28	=28	=28	=28	=28	=28
4.E 4.EE\	24a/LL	<	8b/	-tant	.
.	(24d#X/	.	.	.	.
.	24a/JJ	.	.	.	.
.	24cc/LL	.	8a/	doit	.
.	24a/	.	.	.	.
.	24cc/JJ	.	.	.	.
.	24dd#X/LL	.	8a/	fi-	.
.	24cc/	[	.	.	.
.	24dd#/JJ)	.	.	.	.
=29	=29	=29	=29	=29	=29
4.E 4.EE\	24g#X/LL	.	4cc^/	-xer	.
.	(24e/	.	.	.	.
!	!	!LO:HP:t=cres	!	!	!
.	24g#/JJ	<	.	.	.
.	24b/LL	.	.	.	.
.	24g#/	.	.	.	.
.	24b/JJ	.	.	.	.
.	24ee/LL	.	8b/	ma	.
.	24b/	.	.	.	.
.	24ee/JJ)	.	.	.	.
=30	=30	=30	=30	=30	=30
4.F 4.FF\	(24a/LL	.	4dd^/	vi-	.
.	24f/	.	.	.	.
.	24a/JJ	.	.	.	.
.	24cc/LL	.	.	.	.
.	24a/	.	.	.	.
.	24cc/JJ	.	.	.	.
.	24ff/LL	.	8cc/	-e	.
.	24cc/	.	.	.	.
.	24ff/JJ)	.	.	.	.
=31	=31	=31	=31	=31	=31
4.D 4.DD\	(24b-X/LL	.	8b-X\	il	.
.	24f/	.	.	.	.
!	!	!LO:HP:t=dim.	!	!	!
.	24b-/JJ	>	.	.	.
.	24dd/LL	.	8b-\	faut	.
.	24b-/	.	.	.	.
.	24dd/JJ	.	.	.	.
.	24ff/LL	.	8b-\	qu'a	.
.	24dd/	.	.	.	.
.	24ff/JJ)	.	.	.	.
=32	=32	=32	=32	=32	=32
!	!	!	!LO:N:vis=4	!	!
4.D#X 4.DD#X\	(24a/LL	.	8a/	ton	.
.	24f#X/	.	.	.	.
.	24a/JJ	.	.	.	.
.	24b/LL	.	8.bn/	charme	.
.	24a/	.	.	.	.
.	24b/JJ	.	.	.	.
.	24ff#X/LL	.	.	.	.
.	24b/	.	.	.	.
.	.	.	16a/	di	.
.	24ff#/JJ)	.	.	.	.
!!LO:PB:g=original
=33	=33	=33	=33	=33	=33
4.E 4.EE\	24ee 24g#X\	.	4.g#X/	vin	.
.	(24e/LL	.	.	.	.
.	24g#/JJ)	.	.	.	.
.	(24b\LL	.	.	.	.
.	24dd\	.	.	.	.
.	24ee\JJ	.	.	.	.
.	24gg\LL	.	.	.	.
!	!LO:TX:b:i:t=rall.	!	!	!	!
.	24bb\	.	.	.	.
.	24aa\JJ)	.	.	.	.
=34	=34	=34	=34	=34	=34
4.d 4.B 4.G#X 4.E\	24gg#X^\LL	.	8r	.	.
.	(<24ff\	.	.	.	.
.	24ee\JJ	.	.	.	.
.	24dd^\LL	.	8r	.	.
.	24cc\	.	.	.	.
.	24b\JJ	.	.	.	.
.	24a^/LL	.	8ee\	hé-	.
.	24g#X/	.	.	.	.
.	24f/JJ)	.	.	.	.
=35	=35	=35	=35	=35	=35
*^	*	*	*	*	*
!LO:N:vis=2	!LO:N:vis=2	!	!	!	!	!
8AA/L	4.AA\	(24e/LL	.	8ee\	-las!	.
.	.	24c/	.	.	.	.
.	.	24e/JJ	.	.	.	.
8E/	.	24a/LL	.	8dd\	que	.
.	.	24e/	.	.	.	.
.	.	24a/JJ	.	.	.	.
8A/J	.	24cc/LL	.	8cc\	l'in	.
.	.	24a/	.	.	.	.
!	!	!LO:TX:b:i:t=legato	!	!	!	!
.	.	24cc/JJ)	.	.	.	.
=36	=36	=36	=36	=36	=36	=36
!LO:N:vis=2	!LO:N:vis=2	!	!	!	!	!
8AA/L	4.AA\	(24e/LL	.	(4b\	grat	.
.	.	24c/	.	.	.	.
.	.	24e/JJ	.	.	.	.
8E/	.	24a/LL	.	.	.	.
.	.	24e/	.	.	.	.
.	.	24a/JJ	.	.	.	.
8A/J	.	24cc/LL	.	8a\)	.	.
.	.	24a/	.	.	.	.
.	.	24cc/JJ)	.	.	.	.
=37	=37	=37	=37	=37	=37	=37
!LO:N:vis=2	!LO:N:vis=2	!	!	!	!	!
8AA/L	4.AA\	(24e/LL	.	4cc\	qui	.
.	.	24c/	.	.	.	.
.	.	24e/JJ	.	.	.	.
8E/	.	24a/LL	.	.	.	.
.	.	24e/	.	.	.	.
.	.	24a/JJ	.	.	.	.
8A/J	.	24cc/LL	.	8cc\	m'ou-	.
.	.	24a/	.	.	.	.
.	.	24cc/JJ)	.	.	.	.
=38	=38	=38	=38	=38	=38	=38
!LO:N:vis=2	!LO:N:vis=2.	!	!	!	!	!
8DD/L	4.DD\	(24f/LL	.	(4.cc\	-bli-	.
.	.	24B/	.	.	.	.
.	.	24f/JJ	.	.	.	.
8BB/	.	24a/LL	.	.	.	.
.	.	24f/	.	.	.	.
.	.	24a/JJ	.	.	.	.
8D/J	.	24b/LL	.	.	.	.
.	.	24a/	.	.	.	.
.	.	24b/JJ)	.	.	.	.
=39	=39	=39	=39	=39	=39	=39
!LO:N:vis=2	!LO:N:vis=2.	!	!	!	!	!
8DD/L	4.DD\	(24f/LL	.	8b\)	-e	.
.	.	24B/	.	.	.	.
.	.	24f/JJ	.	.	.	.
8BB/	.	24a/LL	.	8b\	à	.
.	.	24f/	.	.	.	.
.	.	24a/JJ	.	.	.	.
8D/J	.	24b/LL	.	8b\	ta	.
.	.	24a/	.	.	.	.
.	.	24b/JJ)	.	.	.	.
=40	=40	=40	=40	=40	=40	=40
!LO:N:vis=2	!LO:N:vis=2	!	!	!	!	!
8EE/L	4.EE\	(24e/LL	.	4ee^\	voix	.
.	.	24B/	.	.	.	.
.	.	24e/JJ	.	.	.	.
8BB/	.	24g#X/LL	.	.	.	.
.	.	24e/	.	.	.	.
.	.	24g#/JJ	.	.	.	.
8E/J	.	24b/LL	.	8dd\	chan-	.
.	.	24g#/	.	.	.	.
.	.	24b/JJ)	.	.	.	.
!!LO:LB:g=original
=41	=41	=41	=41	=41	=41	=41
!LO:N:vis=2	!LO:N:vis=2	!	!	!	!	!
8EE/L	4.EE\	(24e/LL	.	8cc'\	-ge	.
.	.	24d/	.	.	.	.
.	.	24e/JJ	.	.	.	.
8BB/	.	24g#X/LL	.	8b'\	mon	.
.	.	24e/	.	.	.	.
.	.	24g#/JJ	.	.	.	.
8E/J	.	24b/LL	.	8cc'\	des-	.
.	.	24g#/	.	.	.	.
.	.	24b/JJ)	.	.	.	.
=42	=42	=42	=42	=42	=42	=42
!LO:N:vis=2	!LO:N:vis=2	!	!	!	!	!
8AA/L	4.AA\	(24e/LL	.	4.a/	-tin	.
.	.	24c/	.	.	.	.
.	.	24e/JJ	.	.	.	.
8E/	.	24a/LL	.	.	.	.
.	.	24e/	.	.	.	.
.	.	24a/JJ	.	.	.	.
8A/J	.	24cc/LL	.	.	.	.
.	.	24a/	.	.	.	.
.	.	24cc/JJ)	.	.	.	.
*v	*v	*	*	*	*	*
=43	=43	=43	=43	=43	=43
8BB'\	(24a/LL	.	4a/	à	.
.	24d/	.	.	.	.
.	24a/JJ	.	.	.	.
!LO:TX:b:i:t=ben marcato	!	!	!	!	!
8B'\	24dd/LL	.	.	.	.
.	24a/	.	.	.	.
.	24dd/JJ	.	.	.	.
8E'\	24g#X/LL	.	8b/	ta	.
.	24d/	.	.	.	.
.	24g#/JJ)	.	.	.	.
=44	=44	=44	=44	=44	=44
8A'\	(24e/LL	.	8cc\	voix	.
.	24c/	.	.	.	.
.	24e/JJ	.	.	.	.
8AA'/	24a/LL	.	8b\	chan-	.
.	24e/	.	.	.	.
.	24a/JJ	.	.	.	.
8C'/	24cc/LL	.	8a/	-ge	.
.	24a/	.	.	.	.
.	24cc/JJ)	.	.	.	.
=45	=45	=45	=45	=45	=45
!	!	!	!	!	!LO:DY:a
8D'\	(24f/LL	.	8b\	mon	<
.	24B/	.	.	.	.
.	24f/JJ	.	.	.	.
8BB'\	24a/LL	.	8ff\	.	[
.	24f/	.	.	.	.
.	24a/JJ	.	.	.	.
!	!	!	!	!	!LO:DY:a
8E'\	24g#X/LL	.	8ee\	des-	>]
.	24d/	.	.	.	.
.	24g#/JJ)	.	.	.	.
=46	=46	=46	=46	=46	=46
4.A 4.AA\	(24e/LL	.	4.a/	-tin.	.
.	24c/	.	.	.	.
.	24e/JJ	.	.	.	.
.	24a/LL	.	.	.	.
.	24e/	.	.	.	.
.	24a/JJ	.	.	.	.
.	24cc/LL	.	.	.	.
.	24a/	.	.	.	.
.	24cc/JJ)	.	.	.	.
=47||	=47||	=47||	=47||	=47||	=47||
8F'\L	(24dd\LL	.	4.r	.	.
.	24a\	.	.	.	.
.	24cc\JJ	.	.	.	.
8D'\	24b\LL	.	.	.	.
.	24f\	.	.	.	.
.	24a\JJ	.	.	.	.
8E'\J	24g#X^\LL	.	.	.	.
.	24d\	.	.	.	.
.	24b\JJ)	.	.	.	.
!!LO:LB:g=original
=48	=48	=48	=48	=48	=48
8AA'\L	(24a/LL	.	4.r	.	.
.	24c/	.	.	.	.
.	24e/JJ	.	.	.	.
8E'\	24a/LL	.	.	.	.
.	24e/	.	.	.	.
.	24a/JJ	.	.	.	.
8A'\J	24cc/LL	.	.	.	.
.	24a/	.	.	.	.
.	24cc/JJ)	.	.	.	.
=49	=49	=49	=49	=49	=49
8F'\L	(24dd^\LL	.	4.r	.	.
.	24a\	.	.	.	.
.	24cc\JJ	.	.	.	.
8D'\	24b^\LL	.	.	.	.
.	24f\	.	.	.	.
.	24a\JJ	.	.	.	.
8E'\J	24g#X^\LL	.	.	.	.
.	24d\	.	.	.	.
.	24b\JJ)	.	.	.	.
!LO:TX:a:t=[segno]	!LO:TX:a:t=[segno]	!	!LO:TX:a:t=[segno]	!	!
=50||	=50||	=50||	=50||	=50||	=50||
8A 8AA\	8a\	.	4.r	.	.
8F 8FF\	8aa 8dd 8a\	.	.	.	.
8E 8EE\	8bb 8gg#X 8ee 8b\	.	.	.	.
=51	=51	=51	=51	=51	=51
[>4.AA/	24ccc 24aa 24ee 24cc\	.	4.r	.	.
.	(24c/LL	.	.	.	.
.	24e/JJ	.	.	.	.
.	24a/LL	.	.	.	.
.	24e/	.	.	.	.
.	24a/JJ	.	.	.	.
.	24cc/LL	.	.	.	.
.	24a/	.	.	.	.
.	24cc/JJ)	.	.	.	.
=52	=52	=52	=52	=52	=52
8AA/]	8aa\	.	4.r	.	.
!	!LO:TX:b:i:t=con fouco.	!	!	!	!
8EE/	8aa 8ee 8cc 8a\	.	.	.	.
8EE/	8bb 8gg#X 8ee 8b\	.	.	.	.
=53	=53	=53	=53	=53	=53
4.A 4.AA\	4.ccc 4.aa 4.ee 4.cc\	.	4.r	.	.
=54	=54	=54	=54	=54	=54
4.E 4.EE\	4.eee 4.bb 4.gg#X 4.ee\	ff	4.r	.	.
=55	=55	=55	=55	=55	=55
4.AA 4.AAA\	4.a 4.e 4.c/	.	4.r	.	.
==	==	==	==	==	==
*-	*-	*-	*-	*-	*-
!!!system-decoration: s1{(s2,s3)}
!!!RDF**kern: > = above
!!!RDF**kern: < = below
!!!AIN: 2 forte 1 vox
!!!ENC: Anastazja Marusiak
!!!END: 2021-09-09
!!!ENC: Marta Lawrence
!!!END: 2021-10-24
